-----BEGIN PGP PUBLIC KEY BLOCK-----

mQGNBGq/tgQBDACfzQy9WuwaAofWJPF6Cbi9BuzjHZNFdeeJwsX392VTbYVPK6+v
3/iaZ4o94ChRqBqhnsUK9NhmJTGHjJSNHl/tFJRLMIgsafZAeEmcp3YDShIBfrDr
y7CQCE4oNXOtLPRBhh7mQ0nmQjKDS4+erKwwalVvrrAgPe/0GQyQ2pbR6szLkHNs
97u6zYt+EEIhZV85TgFMCFMlJ+N/vMyPjzu13A82buQq5f85v5El42oL5cI/fXBX
Yt3q1LxL0XIpZ14jdp7o7BKtG0r8f7GP+NmDORVq7jLki4/fjK2JWwV4J8gzaZYD
81lnSpJYUxLuo+C2z+AMLgY5Uo7T4zmXaOpCkVtCHm+gXr+O6VMGszSaTxfIiC5P
kM71ivD7IwAIyEHsKqbqdwI6HVCLpAl/2Jdtl/eWoHvsRi3OY81WQIDw5EQnYt3u
xMp5duis3s2ivEFR+K91zwxpm57fEEVcC9E0H2w0FMtLEg3ZMSyCRlEHpOXplkMd
TivWEHGjYqkwRw8AEQEAAbQtRkFSY29udHJvbCBSZWxlYXNlIDxyZWxlYXNlQGZh
cmNvbnRyb2wubG9jYWw+iQHVBBMBCgA/FiEEMvhO8hUgHYkGqYuKl8iBde0o/m4F
Amq/tgQDGy8EBQkDwmcABQsJCAcCBhUKCQgLAgQWAgMBAh4BAheAAAoJEJfIgXXt
KP5uSPIL/0zVa52ysIX3ShapjhKBrV8G6VAEgRGRXCWJ7VZ0U9Y5D6+zfo+FNsAS
j22B0aN7WcWGeSKw5DVCz6nfNRqOwndUsifBTZJd41JXPQCBu4T+NSfl4F7gs2Km
ZBOcUuahpd+9N/fNkXSf9nQHKIlNqWxwLn/zX1KLEq5bxxOPUsMHCWE3zfHDiz9O
xl3GceyC1JTD+pn9+sgGOhlHCjm8N3orDrt/tigOSNDskRKpbVcKMqQd81IbZpa+
gfDOLCYgB/W2piC8923l67JSZ/ttSnG1ZZ4ihhFG1vyL3wr3UV9WBAUmTqLFpc+A
k2T0Zeoz7c0TIadjuW4ZqAzFT5+7fDYUuOu5IMLvZ47yN0sHB0vP8S2CZtPGtorF
eR5ObiCxjatbPmQr5uYU1KbnoyNGKqzKrNTafahAGrkYbbzo5tcXmZcd50wHI0Rl
+UJcBhiMoL9pd8igJjBhWZIy2kjM/UMF3GVvQAPsJ++FBLm4B+zq5ZdxEKAByjvY
3cqZx9412g==
=9kSd
-----END PGP PUBLIC KEY BLOCK-----
